src/modules/75-ce/components/COGatewayAccess/images/loadbalancer.svg

<svg fill="none" height="107" viewBox="0 0 212 107" width="212" xmlns="http://www.w3.org/2000/svg"><g fill="#0b0b0d"><path d="m8.88068 94h.88068v-3.2528h3.87784v3.2528h.8807v-7.2727h-.8807v3.2386h-3.87784v-3.2386h-.88068zm7.00462-6.4915h2.2869v6.4915h.8807v-6.4915h2.2869v-.7812h-5.4545zm6.416 0h2.2869v6.4915h.8807v-6.4915h2.287v-.7812h-5.4546zm6.8138 6.4915h.8806v-2.6562h1.5909c1.6939 0 2.4574-1.0299 2.4574-2.3154s-.7635-2.3011-2.4716-2.3011h-2.4573zm.8806-3.4375v-3.054h1.5483c1.1826 0 1.6336.6463 1.6336 1.5199s-.451 1.5341-1.6194 1.5341zm-18.8565 9.9825h-1.16477v-1.3064h-.83807v1.3064h-.82386v.711h.82386v3.409c0 .951.76705 1.406 1.47724 1.406.3125 0 .5114-.057.625-.099l-.1704-.753c-.071.014-.1847.042-.3693.042-.3694 0-.72447-.113-.72447-.823v-3.182h1.16477zm1.2607 5.455h.838v-3.452c0-.738.5824-1.278 1.3779-1.278.2237 0 .4545.042.5113.057v-.853c-.0959-.007-.316-.014-.4403-.014-.6534 0-1.2216.37-1.4205.909h-.0568v-.824h-.8096zm5.3258.128c.9517 0 1.4488-.512 1.6193-.867h.0426v.739h.8381v-3.594c0-1.733-1.321-1.932-2.0171-1.932-.8238 0-1.7613.285-2.1875 1.279l.7955.284c.1846-.398.6214-.824 1.4204-.824.7706 0 1.1506.408 1.1506 1.108v.028c0 .405-.4119.37-1.4062.498-1.0121.131-2.1165.355-2.1165 1.605 0 1.065.8238 1.676 1.8608 1.676zm.1278-.753c-.6676 0-1.1506-.298-1.1506-.881 0-.639.5824-.838 1.2358-.923.3552-.043 1.3069-.142 1.4489-.312v.767c0 .681-.5398 1.349-1.5341 1.349zm6.3308-4.83h-1.2216v-.5535c0-.5398.2273-.8239.7813-.8239.2414 0 .3835.0568.4687.0852l.2415-.7244c-.1279-.0568-.3835-.142-.7955-.142-.7812 0-1.5341.4687-1.5341 1.4062v.7524h-.8806v.711h.8806v4.744h.8381v-4.744h1.2216zm3.6035 0h-1.2216v-.5535c0-.5398.2273-.8239.7813-.8239.2415 0 .3835.0568.4687.0852l.2415-.7244c-.1278-.0568-.3835-.142-.7954-.142-.7813 0-1.5341.4687-1.5341 1.4062v.7524h-.8807v.711h.8807v4.744h.838v-4.744h1.2216zm1.1746 5.455h.838v-5.455h-.838zm.4261-6.3636c.3267 0 .5966-.2557.5966-.5682s-.2699-.5682-.5966-.5682-.5966.2557-.5966.5682.2699.5682.5966.5682zm4.1628 6.4776c1.2074 0 2.0029-.739 2.1449-1.705h-.8381c-.1562.597-.6534.952-1.3068.952-.9943 0-1.6335-.824-1.6335-2.088 0-1.236.6534-2.046 1.6335-2.046.7387 0 1.179.455 1.3068.952h.8381c-.142-1.023-1.0085-1.705-2.1591-1.705-1.4773 0-2.4574 1.165-2.4574 2.827 0 1.634.9375 2.813 2.4716 2.813z"/><path d="m70.8807 94h4.2613v-.7812h-3.3806v-6.4915h-.8807zm7.7273.1136c1.4772 0 2.4715-1.1221 2.4715-2.8125 0-1.7045-.9943-2.8267-2.4715-2.8267-1.4773 0-2.4716 1.1222-2.4716 2.8267 0 1.6904.9943 2.8125 2.4716 2.8125zm0-.7528c-1.1222 0-1.6336-.9659-1.6336-2.0597 0-1.0937.5114-2.0738 1.6336-2.0738 1.1221 0 1.6335.9801 1.6335 2.0738 0 1.0938-.5114 2.0597-1.6335 2.0597zm5.356.767c.9517 0 1.4488-.5113 1.6193-.8664h.0426v.7386h.8381v-3.5938c0-1.7329-1.3211-1.9318-2.0171-1.9318-.8239 0-1.7614.2841-2.1875 1.2784l.7955.2841c.1846-.3977.6214-.8238 1.4204-.8238.7706 0 1.1506.4083 1.1506 1.1079v.0284c0 .4049-.4119.3694-1.4063.4972-1.012.1314-2.1164.3551-2.1164 1.6051 0 1.0653.8238 1.6761 1.8608 1.6761zm.1278-.7528c-.6676 0-1.1506-.2983-1.1506-.8807 0-.6392.5824-.8381 1.2358-.9233.3551-.0426 1.3068-.142 1.4489-.3125v.7671c0 .6818-.5398 1.3494-1.5341 1.3494zm5.9615.7386c1.0511 0 1.4062-.6534 1.5909-.9517h.0994v.8381h.8097v-7.2727h-.8381v2.6846h-.071c-.1847-.2841-.5114-.9375-1.5767-.9375-1.3779 0-2.3296 1.0938-2.3296 2.8125 0 1.733.9517 2.8267 2.3154 2.8267zm.1136-.7528c-1.0511 0-1.5909-.9233-1.5909-2.0881 0-1.1505.5256-2.0454 1.5909-2.0454 1.0227 0 1.5625.8238 1.5625 2.0454 0 1.2358-.554 2.0881-1.5625 2.0881zm-19.2862 12.6392h2.6278c1.7188 0 2.429-.838 2.429-1.932 0-1.15-.7955-1.775-1.4631-1.818v-.071c.625-.17 1.179-.582 1.179-1.52 0-1.0652-.7102-1.9317-2.2301-1.9317h-2.5426zm.8807-.781v-2.529h1.7897c.9517 0 1.5483.64 1.5483 1.378 0 .639-.4403 1.151-1.5909 1.151zm0-3.296v-2.4145h1.6619c.9659 0 1.392.5115 1.392 1.1505 0 .767-.625 1.264-1.4204 1.264zm7.1147 4.205c.9517 0 1.4488-.512 1.6193-.867h.0426v.739h.8381v-3.594c0-1.733-1.3211-1.932-2.0171-1.932-.8238 0-1.7613.285-2.1875 1.279l.7955.284c.1846-.398.6214-.824 1.4204-.824.7706 0 1.1506.408 1.1506 1.108v.028c0 .405-.4119.37-1.4063.498-1.012.131-2.1164.355-2.1164 1.605 0 1.065.8238 1.676 1.8608 1.676zm.1278-.753c-.6676 0-1.1506-.298-1.1506-.881 0-.639.5824-.838 1.2358-.923.3551-.043 1.3069-.142 1.4489-.312v.767c0 .681-.5398 1.349-1.5341 1.349zm4.7399-6.6477h-.8381v7.2727h.8381zm3.1401 7.4007c.9517 0 1.4488-.512 1.6193-.867h.0426v.739h.8381v-3.594c0-1.733-1.321-1.932-2.0171-1.932-.8238 0-1.7613.285-2.1875 1.279l.7955.284c.1846-.398.6214-.824 1.4204-.824.7706 0 1.1506.408 1.1506 1.108v.028c0 .405-.4119.37-1.4062.498-1.0121.131-2.1165.355-2.1165 1.605 0 1.065.8238 1.676 1.8608 1.676zm.1278-.753c-.6676 0-1.1505-.298-1.1505-.881 0-.639.5823-.838 1.2357-.923.3552-.043 1.3069-.142 1.4489-.312v.767c0 .681-.5398 1.349-1.5341 1.349zm4.7399-2.656c0-.952.5895-1.492 1.392-1.492.7777 0 1.25.508 1.25 1.364v3.409h.8381v-3.466c0-1.392-.7422-2.06-1.8466-2.06-.8238 0-1.3352.37-1.5909.924h-.071v-.853h-.8097v5.455h.8381zm7.2274 3.395c1.207 0 2.003-.739 2.145-1.705h-.838c-.156.597-.6535.952-1.307.952-.9943 0-1.6335-.824-1.6335-2.088 0-1.236.6534-2.046 1.6335-2.046.7387 0 1.179.455 1.307.952h.838c-.142-1.023-1.009-1.705-2.1592-1.705-1.4772 0-2.4573 1.165-2.4573 2.827 0 1.634.9375 2.813 2.4715 2.813zm5.657 0c1.108 0 1.918-.554 2.173-1.378l-.809-.227c-.213.568-.707.852-1.364.852-.984 0-1.662-.636-1.701-1.804h3.96v-.355c0-2.032-1.208-2.728-2.344-2.728-1.477 0-2.458 1.165-2.458 2.841s.966 2.799 2.543 2.799zm-1.701-3.282c.057-.848.657-1.605 1.616-1.605.909 0 1.491.682 1.491 1.605zm5.234 3.168h.838v-3.452c0-.738.583-1.278 1.378-1.278.224 0 .455.042.512.057v-.853c-.096-.007-.316-.014-.441-.014-.653 0-1.221.37-1.42.909h-.057v-.824h-.81z"/><path d="m163.761 86.7273h-.88v7.2727h.88zm2.491 3.9915c0-.9518.589-1.4915 1.392-1.4915.777 0 1.25.5078 1.25 1.3636v3.4091h.838v-3.4659c0-1.3921-.742-2.0597-1.847-2.0597-.824 0-1.335.3694-1.591.9233h-.071v-.8522h-.809v5.4545h.838zm8.875-.9518c-.263-.7741-.852-1.2926-1.932-1.2926-1.151 0-2.003.6534-2.003 1.5767 0 .7529.448 1.2571 1.449 1.4915l.909.2131c.55.1278.81.3906.81.767 0 .4688-.497.8523-1.279.8523-.685 0-1.115-.2947-1.264-.8807l-.795.1989c.195.9268.958 1.4204 2.074 1.4204 1.267 0 2.13-.6924 2.13-1.6335 0-.7599-.476-1.2393-1.449-1.4773l-.809-.1988c-.647-.1598-.938-.3764-.938-.7955 0-.4687.497-.8096 1.165-.8096.731 0 1.033.4048 1.179.7812zm3.733-1.2215h-1.165v-1.3069h-.838v1.3069h-.824v.7102h.824v3.4091c0 .9517.767 1.4062 1.477 1.4062.313 0 .512-.0568.625-.0994l-.17-.7528c-.071.0142-.185.0426-.369.0426-.37 0-.725-.1137-.725-.8239v-3.1818h1.165zm2.866 5.5823c.951 0 1.449-.5113 1.619-.8664h.043v.7386h.838v-3.5938c0-1.7329-1.321-1.9318-2.017-1.9318-.824 0-1.762.2841-2.188 1.2784l.796.2841c.184-.3977.621-.8238 1.42-.8238.771 0 1.151.4083 1.151 1.1079v.0284c0 .4049-.412.3694-1.407.4972-1.012.1314-2.116.3551-2.116 1.6051 0 1.0653.824 1.6761 1.861 1.6761zm.128-.7528c-.668 0-1.151-.2983-1.151-.8807 0-.6392.582-.8381 1.236-.9233.355-.0426 1.307-.142 1.449-.3125v.7671c0 .6818-.54 1.3494-1.534 1.3494zm4.739-2.6562c0-.9518.59-1.4915 1.392-1.4915.778 0 1.25.5078 1.25 1.3636v3.4091h.839v-3.4659c0-1.3921-.743-2.0597-1.847-2.0597-.824 0-1.335.3694-1.591.9233h-.071v-.8522h-.81v5.4545h.838zm7.228 3.3948c1.207 0 2.003-.7386 2.145-1.7045h-.838c-.157.5966-.654.9517-1.307.9517-.994 0-1.634-.8239-1.634-2.0881 0-1.2358.654-2.0454 1.634-2.0454.738 0 1.179.4545 1.307.9517h.838c-.142-1.0228-1.009-1.7046-2.159-1.7046-1.478 0-2.458 1.1648-2.458 2.8267 0 1.6336.938 2.8125 2.472 2.8125zm5.657 0c1.108 0 1.917-.5539 2.173-1.3778l-.81-.2273c-.213.5682-.706.8523-1.363.8523-.984 0-1.662-.6357-1.701-1.804h3.959v-.3551c0-2.0312-1.207-2.7273-2.343-2.7273-1.478 0-2.458 1.1648-2.458 2.8409 0 1.6762.966 2.7983 2.543 2.7983zm-1.701-3.2812c.057-.8487.657-1.6051 1.616-1.6051.909 0 1.491.6818 1.491 1.6051zm9.098-1.0654c-.263-.7741-.852-1.2926-1.932-1.2926-1.151 0-2.003.6534-2.003 1.5767 0 .7529.448 1.2571 1.449 1.4915l.909.2131c.551.1278.81.3906.81.767 0 .4688-.497.8523-1.279.8523-.685 0-1.115-.2947-1.264-.8807l-.795.1989c.195.9268.959 1.4204 2.074 1.4204 1.267 0 2.13-.6924 2.13-1.6335 0-.7599-.476-1.2393-1.449-1.4773l-.809-.1988c-.647-.1598-.938-.3764-.938-.7955 0-.4687.497-.8096 1.165-.8096.732 0 1.033.4048 1.179.7812z"/></g><path d="m173 7-5 2.88675v-5.7735zm-69 24.5h29.315v1h-29.315zm30.815-1.5v-21h1v21zm2.5-23.5h31.185v1h-31.185zm-2.5 2.5c0-1.38071 1.12-2.5 2.5-2.5v1c-.828 0-1.5.67157-1.5 1.5zm-1.5 22.5c.829 0 1.5-.6716 1.5-1.5h1c0 1.3807-1.119 2.5-2.5 2.5z" fill="#4dc952"/><path d="m173 69-5-2.8868v5.7736zm-69-24.5h29.315v-1h-29.315zm30.815 1.5v21h1v-21zm2.5 23.5h31.185v-1h-31.185zm-2.5-2.5c0 1.3807 1.12 2.5 2.5 2.5v-1c-.828 0-1.5-.6716-1.5-1.5zm-1.5-22.5c.829 0 1.5.6716 1.5 1.5h1c0-1.3807-1.119-2.5-2.5-2.5z" fill="#9293ab"/><rect fill="#a3e9ff" height="34" rx="2" width="34" x="70" y="22"/><path d="m70 38-5-2.8868v5.7736zm-70 .5h65.5v-1h-65.5z" fill="#4dc952"/><path d="m173 38-5-2.8868v5.7736zm-69 .5h64.5v-1h-64.5z" fill="#9293ab"/><rect fill="#b0b1c4" height="14" rx="2" width="14" x="173"/><rect fill="#4dc952" height="12" rx="2" width="12" x="174" y="1"/><rect fill="#b0b1c4" height="14" rx="2" width="14" x="173" y="32"/><rect fill="#b0b1c4" height="14" rx="2" width="14" x="173" y="62"/></svg>

<svg width="212" height="107" viewBox="0 0 212 107" fill="none" xmlns="http://www.w3.org/2000/svg">
<path d="M8.88068 94H9.76136V90.7472H13.6392V94H14.5199V86.7273H13.6392V89.9659H9.76136V86.7273H8.88068V94ZM15.8853 87.5085H18.1722V94H19.0529V87.5085H21.3398V86.7273H15.8853V87.5085ZM22.3013 87.5085H24.5882V94H25.4689V87.5085H27.7559V86.7273H22.3013V87.5085ZM29.1151 94H29.9957V91.3438H31.5866C33.2805 91.3438 34.044 90.3139 34.044 89.0284C34.044 87.7429 33.2805 86.7273 31.5724 86.7273H29.1151V94ZM29.9957 90.5625V87.5085H31.544C32.7266 87.5085 33.1776 88.1548 33.1776 89.0284C33.1776 89.902 32.7266 90.5625 31.5582 90.5625H29.9957ZM11.1392 100.545H9.97443V99.2386H9.13636V100.545H8.3125V101.256H9.13636V104.665C9.13636 105.616 9.90341 106.071 10.6136 106.071C10.9261 106.071 11.125 106.014 11.2386 105.972L11.0682 105.219C10.9972 105.233 10.8835 105.261 10.6989 105.261C10.3295 105.261 9.97443 105.148 9.97443 104.438V101.256H11.1392V100.545ZM12.3999 106H13.2379V102.548C13.2379 101.81 13.8203 101.27 14.6158 101.27C14.8395 101.27 15.0703 101.312 15.1271 101.327V100.474C15.0312 100.467 14.8111 100.46 14.6868 100.46C14.0334 100.46 13.4652 100.83 13.2663 101.369H13.2095V100.545H12.3999V106ZM17.7257 106.128C18.6774 106.128 19.1745 105.616 19.345 105.261H19.3876V106H20.2257V102.406C20.2257 100.673 18.9047 100.474 18.2086 100.474C17.3848 100.474 16.4473 100.759 16.0211 101.753L16.8166 102.037C17.0012 101.639 17.438 101.213 18.237 101.213C19.0076 101.213 19.3876 101.621 19.3876 102.321V102.349C19.3876 102.754 18.9757 102.719 17.9814 102.847C16.9693 102.978 15.8649 103.202 15.8649 104.452C15.8649 105.517 16.6887 106.128 17.7257 106.128ZM17.8535 105.375C17.1859 105.375 16.7029 105.077 16.7029 104.494C16.7029 103.855 17.2853 103.656 17.9387 103.571C18.2939 103.528 19.2456 103.429 19.3876 103.259V104.026C19.3876 104.707 18.8478 105.375 17.8535 105.375ZM24.1843 100.545H22.9627V99.9915C22.9627 99.4517 23.19 99.1676 23.744 99.1676C23.9854 99.1676 24.1275 99.2244 24.2127 99.2528L24.4542 98.5284C24.3263 98.4716 24.0707 98.3864 23.6587 98.3864C22.8775 98.3864 22.1246 98.8551 22.1246 99.7926V100.545H21.244V101.256H22.1246V106H22.9627V101.256H24.1843V100.545ZM27.7878 100.545H26.5662V99.9915C26.5662 99.4517 26.7935 99.1676 27.3475 99.1676C27.589 99.1676 27.731 99.2244 27.8162 99.2528L28.0577 98.5284C27.9299 98.4716 27.6742 98.3864 27.2623 98.3864C26.481 98.3864 25.7282 98.8551 25.7282 99.7926V100.545H24.8475V101.256H25.7282V106H26.5662V101.256H27.7878V100.545ZM28.9624 106H29.8004V100.545H28.9624V106ZM29.3885 99.6364C29.7152 99.6364 29.9851 99.3807 29.9851 99.0682C29.9851 98.7557 29.7152 98.5 29.3885 98.5C29.0618 98.5 28.7919 98.7557 28.7919 99.0682C28.7919 99.3807 29.0618 99.6364 29.3885 99.6364ZM33.5513 106.114C34.7587 106.114 35.5542 105.375 35.6962 104.409H34.8581C34.7019 105.006 34.2047 105.361 33.5513 105.361C32.557 105.361 31.9178 104.537 31.9178 103.273C31.9178 102.037 32.5712 101.227 33.5513 101.227C34.29 101.227 34.7303 101.682 34.8581 102.179H35.6962C35.5542 101.156 34.6877 100.474 33.5371 100.474C32.0598 100.474 31.0797 101.639 31.0797 103.301C31.0797 104.935 32.0172 106.114 33.5513 106.114Z" fill="#0B0B0D"/>
<path d="M70.8807 94H75.142V93.2188H71.7614V86.7273H70.8807V94ZM78.608 94.1136C80.0852 94.1136 81.0795 92.9915 81.0795 91.3011C81.0795 89.5966 80.0852 88.4744 78.608 88.4744C77.1307 88.4744 76.1364 89.5966 76.1364 91.3011C76.1364 92.9915 77.1307 94.1136 78.608 94.1136ZM78.608 93.3608C77.4858 93.3608 76.9744 92.3949 76.9744 91.3011C76.9744 90.2074 77.4858 89.2273 78.608 89.2273C79.7301 89.2273 80.2415 90.2074 80.2415 91.3011C80.2415 92.3949 79.7301 93.3608 78.608 93.3608ZM83.964 94.1278C84.9157 94.1278 85.4128 93.6165 85.5833 93.2614H85.6259V94H86.464V90.4062C86.464 88.6733 85.1429 88.4744 84.4469 88.4744C83.623 88.4744 82.6855 88.7585 82.2594 89.7528L83.0549 90.0369C83.2395 89.6392 83.6763 89.2131 84.4753 89.2131C85.2459 89.2131 85.6259 89.6214 85.6259 90.321V90.3494C85.6259 90.7543 85.214 90.7188 84.2196 90.8466C83.2076 90.978 82.1032 91.2017 82.1032 92.4517C82.1032 93.517 82.927 94.1278 83.964 94.1278ZM84.0918 93.375C83.4242 93.375 82.9412 93.0767 82.9412 92.4943C82.9412 91.8551 83.5236 91.6562 84.177 91.571C84.5321 91.5284 85.4838 91.429 85.6259 91.2585V92.0256C85.6259 92.7074 85.0861 93.375 84.0918 93.375ZM90.0533 94.1136C91.1044 94.1136 91.4595 93.4602 91.6442 93.1619H91.7436V94H92.5533V86.7273H91.7152V89.4119H91.6442C91.4595 89.1278 91.1328 88.4744 90.0675 88.4744C88.6896 88.4744 87.7379 89.5682 87.7379 91.2869C87.7379 93.0199 88.6896 94.1136 90.0533 94.1136ZM90.1669 93.3608C89.1158 93.3608 88.576 92.4375 88.576 91.2727C88.576 90.1222 89.1016 89.2273 90.1669 89.2273C91.1896 89.2273 91.7294 90.0511 91.7294 91.2727C91.7294 92.5085 91.1754 93.3608 90.1669 93.3608ZM70.8807 106H73.5085C75.2273 106 75.9375 105.162 75.9375 104.068C75.9375 102.918 75.142 102.293 74.4744 102.25V102.179C75.0994 102.009 75.6534 101.597 75.6534 100.659C75.6534 99.5938 74.9432 98.7273 73.4233 98.7273H70.8807V106ZM71.7614 105.219V102.69H73.5511C74.5028 102.69 75.0994 103.33 75.0994 104.068C75.0994 104.707 74.6591 105.219 73.5085 105.219H71.7614ZM71.7614 101.923V99.5085H73.4233C74.3892 99.5085 74.8153 100.02 74.8153 100.659C74.8153 101.426 74.1903 101.923 73.3949 101.923H71.7614ZM78.8761 106.128C79.8278 106.128 80.3249 105.616 80.4954 105.261H80.538V106H81.3761V102.406C81.3761 100.673 80.055 100.474 79.359 100.474C78.5352 100.474 77.5977 100.759 77.1715 101.753L77.967 102.037C78.1516 101.639 78.5884 101.213 79.3874 101.213C80.158 101.213 80.538 101.621 80.538 102.321V102.349C80.538 102.754 80.1261 102.719 79.1317 102.847C78.1197 102.978 77.0153 103.202 77.0153 104.452C77.0153 105.517 77.8391 106.128 78.8761 106.128ZM79.0039 105.375C78.3363 105.375 77.8533 105.077 77.8533 104.494C77.8533 103.855 78.4357 103.656 79.0891 103.571C79.4442 103.528 80.396 103.429 80.538 103.259V104.026C80.538 104.707 79.9982 105.375 79.0039 105.375ZM83.7438 98.7273H82.9057V106H83.7438V98.7273ZM86.8839 106.128C87.8356 106.128 88.3327 105.616 88.5032 105.261H88.5458V106H89.3839V102.406C89.3839 100.673 88.0629 100.474 87.3668 100.474C86.543 100.474 85.6055 100.759 85.1793 101.753L85.9748 102.037C86.1594 101.639 86.5962 101.213 87.3952 101.213C88.1658 101.213 88.5458 101.621 88.5458 102.321V102.349C88.5458 102.754 88.1339 102.719 87.1396 102.847C86.1275 102.978 85.0231 103.202 85.0231 104.452C85.0231 105.517 85.8469 106.128 86.8839 106.128ZM87.0117 105.375C86.3441 105.375 85.8612 105.077 85.8612 104.494C85.8612 103.855 86.4435 103.656 87.0969 103.571C87.4521 103.528 88.4038 103.429 88.5458 103.259V104.026C88.5458 104.707 88.006 105.375 87.0117 105.375ZM91.7516 102.719C91.7516 101.767 92.3411 101.227 93.1436 101.227C93.9213 101.227 94.3936 101.735 94.3936 102.591V106H95.2317V102.534C95.2317 101.142 94.4895 100.474 93.3851 100.474C92.5613 100.474 92.0499 100.844 91.7942 101.398H91.7232V100.545H90.9135V106H91.7516V102.719ZM98.979 106.114C100.186 106.114 100.982 105.375 101.124 104.409H100.286C100.13 105.006 99.6325 105.361 98.979 105.361C97.9847 105.361 97.3455 104.537 97.3455 103.273C97.3455 102.037 97.9989 101.227 98.979 101.227C99.7177 101.227 100.158 101.682 100.286 102.179H101.124C100.982 101.156 100.115 100.474 98.9648 100.474C97.4876 100.474 96.5075 101.639 96.5075 103.301C96.5075 104.935 97.445 106.114 98.979 106.114ZM104.636 106.114C105.744 106.114 106.554 105.56 106.809 104.736L106 104.509C105.787 105.077 105.293 105.361 104.636 105.361C103.652 105.361 102.974 104.725 102.935 103.557H106.895V103.202C106.895 101.17 105.687 100.474 104.551 100.474C103.074 100.474 102.093 101.639 102.093 103.315C102.093 104.991 103.059 106.114 104.636 106.114ZM102.935 102.832C102.992 101.984 103.592 101.227 104.551 101.227C105.46 101.227 106.042 101.909 106.042 102.832H102.935ZM108.169 106H109.007V102.548C109.007 101.81 109.59 101.27 110.385 101.27C110.609 101.27 110.84 101.312 110.897 101.327V100.474C110.801 100.467 110.581 100.46 110.456 100.46C109.803 100.46 109.235 100.83 109.036 101.369H108.979V100.545H108.169V106Z" fill="#0B0B0D"/>
<path d="M163.761 86.7273H162.881V94H163.761V86.7273ZM166.252 90.7188C166.252 89.767 166.841 89.2273 167.644 89.2273C168.421 89.2273 168.894 89.7351 168.894 90.5909V94H169.732V90.5341C169.732 89.142 168.99 88.4744 167.885 88.4744C167.061 88.4744 166.55 88.8438 166.294 89.3977H166.223V88.5455H165.414V94H166.252V90.7188ZM175.127 89.767C174.864 88.9929 174.275 88.4744 173.195 88.4744C172.044 88.4744 171.192 89.1278 171.192 90.0511C171.192 90.804 171.64 91.3082 172.641 91.5426L173.55 91.7557C174.1 91.8835 174.36 92.1463 174.36 92.5227C174.36 92.9915 173.863 93.375 173.081 93.375C172.396 93.375 171.966 93.0803 171.817 92.4943L171.022 92.6932C171.217 93.62 171.98 94.1136 173.096 94.1136C174.363 94.1136 175.226 93.4212 175.226 92.4801C175.226 91.7202 174.75 91.2408 173.777 91.0028L172.968 90.804C172.321 90.6442 172.03 90.4276 172.03 90.0085C172.03 89.5398 172.527 89.1989 173.195 89.1989C173.926 89.1989 174.228 89.6037 174.374 89.9801L175.127 89.767ZM178.86 88.5455H177.695V87.2386H176.857V88.5455H176.033V89.2557H176.857V92.6648C176.857 93.6165 177.624 94.071 178.334 94.071C178.647 94.071 178.846 94.0142 178.959 93.9716L178.789 93.2188C178.718 93.233 178.604 93.2614 178.42 93.2614C178.05 93.2614 177.695 93.1477 177.695 92.4375V89.2557H178.86V88.5455ZM181.726 94.1278C182.677 94.1278 183.175 93.6165 183.345 93.2614H183.388V94H184.226V90.4062C184.226 88.6733 182.905 88.4744 182.209 88.4744C181.385 88.4744 180.447 88.7585 180.021 89.7528L180.817 90.0369C181.001 89.6392 181.438 89.2131 182.237 89.2131C183.008 89.2131 183.388 89.6214 183.388 90.321V90.3494C183.388 90.7543 182.976 90.7188 181.981 90.8466C180.969 90.978 179.865 91.2017 179.865 92.4517C179.865 93.517 180.689 94.1278 181.726 94.1278ZM181.854 93.375C181.186 93.375 180.703 93.0767 180.703 92.4943C180.703 91.8551 181.285 91.6562 181.939 91.571C182.294 91.5284 183.246 91.429 183.388 91.2585V92.0256C183.388 92.7074 182.848 93.375 181.854 93.375ZM186.593 90.7188C186.593 89.767 187.183 89.2273 187.985 89.2273C188.763 89.2273 189.235 89.7351 189.235 90.5909V94H190.074V90.5341C190.074 89.142 189.331 88.4744 188.227 88.4744C187.403 88.4744 186.892 88.8438 186.636 89.3977H186.565V88.5455H185.755V94H186.593V90.7188ZM193.821 94.1136C195.028 94.1136 195.824 93.375 195.966 92.4091H195.128C194.971 93.0057 194.474 93.3608 193.821 93.3608C192.827 93.3608 192.187 92.5369 192.187 91.2727C192.187 90.0369 192.841 89.2273 193.821 89.2273C194.559 89.2273 195 89.6818 195.128 90.179H195.966C195.824 89.1562 194.957 88.4744 193.807 88.4744C192.329 88.4744 191.349 89.6392 191.349 91.3011C191.349 92.9347 192.287 94.1136 193.821 94.1136ZM199.478 94.1136C200.586 94.1136 201.395 93.5597 201.651 92.7358L200.841 92.5085C200.628 93.0767 200.135 93.3608 199.478 93.3608C198.494 93.3608 197.816 92.7251 197.777 91.5568H201.736V91.2017C201.736 89.1705 200.529 88.4744 199.393 88.4744C197.915 88.4744 196.935 89.6392 196.935 91.3153C196.935 92.9915 197.901 94.1136 199.478 94.1136ZM197.777 90.8324C197.834 89.9837 198.434 89.2273 199.393 89.2273C200.302 89.2273 200.884 89.9091 200.884 90.8324H197.777ZM206.875 89.767C206.612 88.9929 206.023 88.4744 204.943 88.4744C203.792 88.4744 202.94 89.1278 202.94 90.0511C202.94 90.804 203.388 91.3082 204.389 91.5426L205.298 91.7557C205.849 91.8835 206.108 92.1463 206.108 92.5227C206.108 92.9915 205.611 93.375 204.829 93.375C204.144 93.375 203.714 93.0803 203.565 92.4943L202.77 92.6932C202.965 93.62 203.729 94.1136 204.844 94.1136C206.111 94.1136 206.974 93.4212 206.974 92.4801C206.974 91.7202 206.498 91.2408 205.525 91.0028L204.716 90.804C204.069 90.6442 203.778 90.4276 203.778 90.0085C203.778 89.5398 204.275 89.1989 204.943 89.1989C205.675 89.1989 205.976 89.6037 206.122 89.9801L206.875 89.767Z" fill="#0B0B0D"/>
<path d="M173 7L168 9.88675V4.11325L173 7ZM104 31.5H133.315V32.5H104V31.5ZM134.815 30V9H135.815V30H134.815ZM137.315 6.5H168.5V7.5H137.315V6.5ZM134.815 9C134.815 7.61929 135.935 6.5 137.315 6.5V7.5C136.487 7.5 135.815 8.17157 135.815 9H134.815ZM133.315 31.5C134.144 31.5 134.815 30.8284 134.815 30H135.815C135.815 31.3807 134.696 32.5 133.315 32.5V31.5Z" fill="#4DC952"/>
<path d="M173 69L168 66.1132V71.8868L173 69ZM104 44.5H133.315V43.5H104V44.5ZM134.815 46V67H135.815V46H134.815ZM137.315 69.5H168.5V68.5H137.315V69.5ZM134.815 67C134.815 68.3807 135.935 69.5 137.315 69.5V68.5C136.487 68.5 135.815 67.8284 135.815 67H134.815ZM133.315 44.5C134.144 44.5 134.815 45.1716 134.815 46H135.815C135.815 44.6193 134.696 43.5 133.315 43.5V44.5Z" fill="#9293AB"/>
<rect x="70" y="22" width="34" height="34" rx="2" fill="#A3E9FF"/>
<path d="M70 38L65 35.1132V40.8868L70 38ZM0 38.5H65.5V37.5H0V38.5Z" fill="#4DC952"/>
<path d="M173 38L168 35.1132V40.8868L173 38ZM104 38.5H168.5V37.5H104V38.5Z" fill="#9293AB"/>
<rect x="173" width="14" height="14" rx="2" fill="#B0B1C4"/>
<rect x="174" y="1" width="12" height="12" rx="2" fill="#4DC952"/>
<rect x="173" y="32" width="14" height="14" rx="2" fill="#B0B1C4"/>
<rect x="173" y="62" width="14" height="14" rx="2" fill="#B0B1C4"/>
</svg>
